public/icons/svg/lightning.svg

<svg fill="none" height="46" viewBox="0 0 34 46" width="34" xmlns="http://www.w3.org/2000/svg"><path d="m33.4607 21.1569c-.0568-.2404-.1721-.463-.3357-.6482-.1635-.1851-.3702-.327-.6018-.413l-10.8019-4.0519 2.7488-13.74937c.0622-.31946.0189-.6505-.1236-.94316-.1424-.29266-.3761-.531065-.6659-.679238-.2897-.148172-.6199-.198072-.9405-.142171-.3206.055902-.6144.214573-.8369.452069l-21.000013 22.49997c-.17056.1798-.293945.3989-.359131.638-.065187.239-.070145.4905-.014432.7319s.170363.4653.333705.6516c.163341.1863.370291.3292.602361.416l10.80561 4.0519-2.74124 13.7344c-.06224.3194-.01889.6505.12351.9431.14241.2927.37613.5311.66593.6793.2898.1481.6199.198.9405.1421s.6144-.2145.8369-.452l21-22.5c.1675-.1798.2883-.3979.3517-.6353.0634-.2373.0676-.4866.0121-.726zm-19.9538 17.9682 1.9632-9.8213c.0702-.3483.0145-.7103-.1571-1.0214-.1717-.3111-.4483-.5511-.7804-.6773l-9.90754-3.7219 15.86624-16.99877-1.9612 9.82127c-.0703.3483-.0146.7102.1571 1.0213s.4482.5512.7804.6774l9.9 3.7125z"/></svg>

<svg width="34" height="46" viewBox="0 0 34 46" fill="none" xmlns="http://www.w3.org/2000/svg">
<path d="M33.4607 21.1569C33.4039 20.9165 33.2886 20.6939 33.125 20.5087C32.9615 20.3236 32.7548 20.1817 32.5232 20.0957L21.7213 16.0438L24.4701 2.29443C24.5323 1.97497 24.489 1.64393 24.3465 1.35127C24.2041 1.05861 23.9704 0.820205 23.6806 0.672032C23.3909 0.52386 23.0607 0.47396 22.7401 0.529861C22.4195 0.585763 22.1257 0.744434 21.9032 0.98193L0.903187 23.4819C0.732627 23.6617 0.609242 23.8808 0.544056 24.1199C0.478869 24.3589 0.473911 24.6104 0.529624 24.8518C0.585337 25.0932 0.699987 25.3171 0.863329 25.5034C1.02667 25.6897 1.23362 25.8326 1.46569 25.9194L12.2713 29.9713L9.53006 43.7057C9.46782 44.0251 9.51117 44.3562 9.65357 44.6488C9.79598 44.9415 10.0297 45.1799 10.3195 45.3281C10.6093 45.4762 10.9394 45.5261 11.26 45.4702C11.5806 45.4143 11.8744 45.2557 12.0969 45.0182L33.0969 22.5182C33.2644 22.3384 33.3852 22.1203 33.4486 21.8829C33.512 21.6456 33.5162 21.3963 33.4607 21.1569ZM13.5069 39.1251L15.4701 29.3038C15.5403 28.9555 15.4846 28.5935 15.313 28.2824C15.1413 27.9713 14.8647 27.7313 14.5326 27.6051L4.62506 23.8832L20.4913 6.88443L18.5301 16.7057C18.4598 17.054 18.5155 17.4159 18.6872 17.727C18.8589 18.0381 19.1354 18.2782 19.4676 18.4044L29.3676 22.1169L13.5069 39.1251Z" />
</svg>
